X:1
T:Title
%%score { ( 1 2 ) | ( 3 4 ) }
L:1/8
M:4/4
K:D
V:1 treble nm="Grand Piano"
V:2 treble 
V:3 bass 
V:4 bass 
V:1
 z4 z2[Q:1/4=100] (3z FA | [Fd]>d d>d d2 c>B | [GB]2 A2 F2 z2 | [CFA]>[CEG] [CEG]>[CDF] [CEG]2 z2 | %4
 [GB]>[FA] [FA]>[=F^G] [^FA]2 (3z FA | [Fd]>d d>d d2 c>B | [GB]2 A2 F2 D>F | %7
 [DA]2 [EG]2 [DF]2 [CE]2 |[M:3/4] D6 |[M:1/4] D>F |[M:4/4] [FA]>[FA] [FA]>[FA] [FA]2 [GB]>[FA] | %11
 [CFA]>[CEG] [CEG]>[CEG] [CEG]2 z2 | [Gc]>[Gc] [Gc]>[Gc] [Gc]2 z2 | %13
 [Fd]>[Fd] [Fd]>[Fd] [Fd]2 (3D-[DF][DFA] | [Fd]>[Fd] [Fd]>[Fd] [Fd]2 [Ac]>[GB] | %15
 [GB]2 [FA]2 F2 D>F | [FA]2 [EG]2 [DF]2 [CE]2 |[M:3/4] [A,D]6 |] %18
V:2
 z4 z2 D2 | x8 | x8 | x8 | z4 z2 D2 | x8 | x8 | x8 |[M:3/4] x6 |[M:1/4] x2 |[M:4/4] x8 | x8 | x8 | %13
 x8 | x8 | x8 | x8 |[M:3/4] x6 |] %18
V:3
 z4 z2 (3:2:2z2 F | z z/[K:treble] F/ F>F F2 A>G | z2 F2 D2 z2 | A,,>A,, A,,>A,, A,,2 z2 | %4
 [D,D]>[D,D] [D,D]>[D,D] [D,D]2 (3:2:2z2[K:treble] F | z z/ F/ F>F F2 A>G | %6
 z2 F2 D2[K:bass] [D,F,A,]>[D,A,D] | [A,,A,]2 [A,,A,]2 [A,,A,]2 [A,,G,]2 |[M:3/4] [D,F,A,]6 | %9
[M:1/4] [D,F,A,]>[D,A,D] |[M:4/4] [D,D]>[D,D] [D,D]>[D,D] [D,D]2 [D,D]>[D,D] | %11
 A,,>A,, A,,>A,, A,,2 z2 | [A,,A,]>[A,,A,] [A,,A,]>[A,,A,] [A,,A,]2 z2 | %13
 [D,A,]>[D,A,] [D,A,]>[D,A,] [D,A,]2 (3[D,-F,][D,A,]D, | %14
 [D,A,]>[D,A,] [D,A,]>[D,A,] [D,A,]2 [D,D]>[D,D] | [D,D]2 [D,D]2 [D,A,D]2 [D,F,A,]>[D,A,D] | %16
 [A,,A,]2 [A,,A,]2 [A,,A,]2 [A,,G,]2 |[M:3/4] [D,F,]6 |] %18
V:4
 z4 z2 D,2 | D,8[K:treble] | D,6 z2 | x8 | z4 z2 D,2[K:treble] | D,8 | D,6[K:bass] z2 | x8 | %8
[M:3/4] x6 |[M:1/4] x2 |[M:4/4] x8 | x8 | x8 | x8 | x8 | x8 | x8 |[M:3/4] x6 |] %18

